usr/share/icons/biglinux-icons-material/scalable/apps/virt-manager.svg

<svg xmlns="http://www.w3.org/2000/svg" xml:space="preserve" width="24" height="24"><defs><linearGradient id="a" x1="12" x2="12" y1="0" y2="12" gradientTransform="translate(.75 .75) scale(.6875)" gradientUnits="userSpaceOnUse" spreadMethod="pad"><stop offset="0" style="stop-opacity:1;stop-color:#fff"/><stop offset="1" style="stop-opacity:1;stop-color:#d9d9d9"/></linearGradient></defs><path d="M7.195.836c.09 0 .176-.012.258-.035a23.86 23.86 0 0 1 3.231.008 10.26 10.26 0 0 1 2.836.636c1.519.625 2.558 1.711 3.121 3.254.316.93.507 1.887.566 2.867a21.227 21.227 0 0 1-.086 3.696 8.976 8.976 0 0 1-.672 2.488c-.637 1.383-1.672 2.336-3.101 2.859a11.693 11.693 0 0 1-3.575.618 15.998 15.998 0 0 1-4.089-.309c-2.481-.551-4.016-2.066-4.594-4.543a14.244 14.244 0 0 1-.336-3.383c-.027-1.215.101-2.41.387-3.59.609-2.312 2.078-3.746 4.406-4.3A10.27 10.27 0 0 1 7.195.836Z" style="fill:url(#a);fill-rule:evenodd;stroke:none" transform="matrix(1.33333 0 0 1.33333 0 0)"/><path d="M2.812 6.453h1.094l1.274 3.641 1.273-3.641h1.09l-1.82 5.094h-1.09z" style="fill:#f54c5d;fill-opacity:1;fill-rule:nonzero;stroke:none" transform="matrix(1.33333 0 0 1.33333 0 0)"/><path d="m6.816 11.547 1.821-5.094h1.09l-1.821 5.094zm3.641 0 1.82-5.094h1.09l-1.82 5.094z" style="fill:#3d4043;fill-opacity:1;fill-rule:nonzero;stroke:none" transform="matrix(1.33333 0 0 1.33333 0 0)"/><path d="m5.723 11.547 1.82-5.094h1.094l-1.821 5.094zm3.64 0 1.821-5.094h1.093l-1.82 5.094z" style="fill:#8a9495;fill-opacity:1;fill-rule:nonzero;stroke:none" transform="matrix(1.33333 0 0 1.33333 0 0)"/><path d="M10.457 11.547H9.363l-1.82-5.094h1.094zm3.637 0h-1.09l-1.82-5.094h1.093z" style="fill:#b7babe;fill-opacity:1;fill-rule:nonzero;stroke:none" transform="matrix(1.33333 0 0 1.33333 0 0)"/><path d="m8.637 6.453 1.82 5.094h1.09l-1.82-5.094Zm3.64 0 1.817 5.094h1.094l-1.821-5.094Z" style="fill:#4f4f4f;fill-opacity:1;fill-rule:nonzero;stroke:none" transform="matrix(1.33333 0 0 1.33333 0 0)"/></svg>

<?xml version="1.0" encoding="UTF-8" standalone="no"?>
<svg
   width="24"
   height="24"
   version="1.1"
   id="svg36227"
   sodipodi:docname="virt-manager.svg"
   inkscape:version="1.2.2 (b0a8486541, 2022-12-01)"
   inkscape:export-filename="virt-manager.pdf"
   inkscape:export-xdpi="800"
   inkscape:export-ydpi="800"
   xml:space="preserve"
   xmlns:inkscape="http://www.inkscape.org/namespaces/inkscape"
   xmlns:sodipodi="http://sodipodi.sourceforge.net/DTD/sodipodi-0.dtd"
   xmlns="http://www.w3.org/2000/svg"
   xmlns:svg="http://www.w3.org/2000/svg"><defs
     id="defs36231"><linearGradient
       x1="12"
       y1="0"
       x2="12"
       y2="12"
       gradientUnits="userSpaceOnUse"
       gradientTransform="matrix(0.6875,0,0,0.6875,0.75001,0.750021)"
       spreadMethod="pad"
       id="linearGradient1744"><stop
         style="stop-opacity:1;stop-color:#ffffff"
         offset="0"
         id="stop1740" /><stop
         style="stop-opacity:1;stop-color:#d9d9d9"
         offset="1"
         id="stop1742" /></linearGradient></defs><sodipodi:namedview
     id="namedview36229"
     pagecolor="#ffffff"
     bordercolor="#000000"
     borderopacity="0.25"
     inkscape:showpageshadow="2"
     inkscape:pageopacity="0.0"
     inkscape:pagecheckerboard="0"
     inkscape:deskcolor="#d1d1d1"
     showgrid="false"
     inkscape:zoom="11.313709"
     inkscape:cx="17.545086"
     inkscape:cy="28.151687"
     inkscape:window-width="1920"
     inkscape:window-height="1000"
     inkscape:window-x="4240"
     inkscape:window-y="0"
     inkscape:window-maximized="1"
     inkscape:current-layer="svg36227" /><g
     id="g1728"
     transform="matrix(1.3333333,0,0,1.3333333,-4.5225532e-4,-3.504174e-5)"><g
       id="g1730"><g
         id="g1732"><g
           id="g1738"><path
             d="m 7.195,0.836 c 0.09,0 0.176,-0.012 0.258,-0.035 1.078,-0.071 2.156,-0.067 3.231,0.008 0.976,0.078 1.921,0.289 2.836,0.636 1.519,0.625 2.558,1.711 3.121,3.254 0.316,0.93 0.507,1.887 0.566,2.867 0.078,1.235 0.051,2.465 -0.086,3.696 -0.105,0.863 -0.328,1.691 -0.672,2.488 -0.637,1.383 -1.672,2.336 -3.101,2.859 C 12.191,17 11,17.207 9.773,17.227 8.398,17.301 7.035,17.195 5.684,16.918 3.203,16.367 1.668,14.852 1.09,12.375 0.844,11.262 0.73,10.133 0.754,8.992 0.727,7.777 0.855,6.582 1.141,5.402 1.75,3.09 3.219,1.656 5.547,1.102 6.09,0.969 6.641,0.879 7.195,0.836 Z"
             style="fill:url(#linearGradient1744);fill-rule:evenodd;stroke:none"
             id="path1746" /></g></g></g><path
       d="M 2.812,6.453 H 3.906 L 5.18,10.094 6.453,6.453 h 1.09 l -1.82,5.094 h -1.09 z"
       style="fill:#f54c5d;fill-opacity:1;fill-rule:nonzero;stroke:none"
       id="path1748" /><path
       d="M 6.816,11.547 8.637,6.453 h 1.09 l -1.821,5.094 z m 3.641,0 1.82,-5.094 h 1.09 l -1.82,5.094 z"
       style="fill:#3d4043;fill-opacity:1;fill-rule:nonzero;stroke:none"
       id="path1750" /><path
       d="m 5.723,11.547 1.82,-5.094 h 1.094 l -1.821,5.094 z m 3.64,0 1.821,-5.094 h 1.093 l -1.82,5.094 z"
       style="fill:#8a9495;fill-opacity:1;fill-rule:nonzero;stroke:none"
       id="path1752" /><path
       d="M 10.457,11.547 H 9.363 L 7.543,6.453 h 1.094 z m 3.637,0 h -1.09 l -1.82,-5.094 h 1.093 z"
       style="fill:#b7babe;fill-opacity:1;fill-rule:nonzero;stroke:none"
       id="path1754" /><path
       d="m 8.637,6.453 1.82,5.094 h 1.09 L 9.727,6.453 Z m 3.64,0 1.817,5.094 h 1.094 L 13.367,6.453 Z"
       style="fill:#4f4f4f;fill-opacity:1;fill-rule:nonzero;stroke:none"
       id="path1756" /></g></svg>
